build/Karasa-Jaga/scalable/status/dialog-password-symbolic.svg

<svg height="16" width="16" xmlns="http://www.w3.org/2000/svg" xmlns:xlink="http://www.w3.org/1999/xlink"><filter id="a" color-interpolation-filters="sRGB"><feBlend in2="BackgroundImage" mode="darken"/></filter><path d="m6.03125.40625c-1.6770715 0-3.09375 1.2855262-3.09375 2.84375v3.3125h-.65625c-.5248713 0-.9375.4438785-.9375.96875v.5 7.0625h1.125v-4.6875c0-.7285131.5839869-1.3125 1.3125-1.3125h8.9375v-1.0625-.5c0-.5248715-.412629-.96875-.9375-.96875h-.65625v-3.3125c0-1.5582238-1.4166779-2.84375-3.09375-2.84375zm0 1.90625h2c.5825444 0 1.03125.3962382 1.03125.9375v3.3125h-4.0625v-3.3125c0-.5412618.4487055-.9375 1.03125-.9375z" fill="#bebebe"/><path d="m4.2262406 9.8700587c-.554 0-1 .4460003-1 1.0000003v4c0 .554.446 1 1 1h9.9999994c.554 0 1-.446 1-1v-4c0-.554-.446-1.0000003-1-1.0000003zm.5 1.0000003h8.9999994s.5 0 .5.5v3s0 .5-.5.5h-8.9999994s-.5 0-.5-.5v-3c0-.5.5-.5.5-.5zm1.5 1c-.55228 0-1 .44772-1 1s.44772 1 1 1 1-.44772 1-1-.44772-1-1-1zm2.9999997 0c-.55228 0-.9999997.44772-.9999997 1s.4477197 1 .9999997 1 .9999997-.44772.9999997-1-.4477197-1-.9999997-1zm2.9999997 0c-.55228 0-1 .44772-1 1s.44772 1 1 1 1-.44772 1-1-.44772-1-1-1z" fill="#bebebe"/><g filter="url(#a)" transform="translate(-582.0002 294.5)"/></svg>

<?xml version="1.0" encoding="UTF-8" standalone="no"?>
<!-- Created with Inkscape (http://www.inkscape.org/) -->

<svg
   xmlns:osb="http://www.openswatchbook.org/uri/2009/osb"
   xmlns:dc="http://purl.org/dc/elements/1.1/"
   xmlns:cc="http://creativecommons.org/ns#"
   xmlns:rdf="http://www.w3.org/1999/02/22-rdf-syntax-ns#"
   xmlns:svg="http://www.w3.org/2000/svg"
   xmlns="http://www.w3.org/2000/svg"
   xmlns:xlink="http://www.w3.org/1999/xlink"
   xmlns:sodipodi="http://sodipodi.sourceforge.net/DTD/sodipodi-0.dtd"
   xmlns:inkscape="http://www.inkscape.org/namespaces/inkscape"
   id="svg7384"
   height="16"
   width="16"
   version="1.1"
   inkscape:version="0.48.3.1 r9886"
   sodipodi:docname="dialog-password-symbolic.svg">
  <defs
     id="defs9">
    <linearGradient
       y2="14.000651"
       x2="6.5625"
       y1="2"
       x1="6.5625"
       gradientUnits="userSpaceOnUse"
       id="linearGradient3787"
       xlink:href="#SpecificGradient"
       inkscape:collect="always" />
    <linearGradient
       y2="14.000651"
       x2="6.5625"
       y1="2"
       x1="6.5625"
       gradientUnits="userSpaceOnUse"
       id="linearGradient3783"
       xlink:href="#SpecificGradient"
       inkscape:collect="always" />
    <clipPath
       id="clipPath3635"
       clipPathUnits="userSpaceOnUse">
      <path
         id="path3637"
         d="m -20,0 0,16 16,0 0,-16 -16,0 z m 8,2 c 3.312,0 6,2.6880001 6,6 0,3.312 -2.688,6 -6,6 -3.312,0 -6,-2.688 -6,-6 0,-3.3119999 2.688,-6 6,-6 z m 0,2.15625 c -0.57648,0 -1.133672,0.1167299 -1.625,0.34375 L -8.5,9.625 C -8.273784,9.1343862 -8.15625,8.5753957 -8.15625,8 -8.15625,5.8708574 -9.870857,4.1562499 -12,4.15625 z m -3.46875,2.125 c -0.255374,0.5152866 -0.375,1.1050247 -0.375,1.71875 0,2.129143 1.714607,3.84375 3.84375,3.84375 0.61479,0 1.202796,-0.118796 1.71875,-0.375 l -5.1875,-5.1875 z"
         style="fill:#ff00ff;fill-opacity:1;stroke:none;display:inline" />
    </clipPath>
    <linearGradient
       gradientTransform="translate(-20,0)"
       y2="14.000651"
       x2="6.5625"
       y1="2"
       x1="6.5625"
       gradientUnits="userSpaceOnUse"
       id="linearGradient3628"
       xlink:href="#SpecificGradient"
       inkscape:collect="always" />
    <inkscape:perspective
       sodipodi:type="inkscape:persp3d"
       inkscape:vp_x="0 : 0.5 : 1"
       inkscape:vp_y="0 : 1000 : 0"
       inkscape:vp_z="1 : 0.5 : 1"
       inkscape:persp3d-origin="0.5 : 0.33333333 : 1"
       id="perspective3648" />
    <linearGradient
       gradientUnits="userSpaceOnUse"
       y2="14.000651"
       x2="6.5625"
       y1="2"
       x1="6.5625"
       id="SpecificGradient">
      <stop
         id="stop3292"
         offset="0"
         style="stop-color:#ad0707;stop-opacity:1;" />
      <stop
         id="stop3294"
         offset="1"
         style="stop-color:#f75535;stop-opacity:1;" />
    </linearGradient>
    <inkscape:perspective
       id="perspective19"
       inkscape:persp3d-origin="8 : 5.3333333 : 1"
       inkscape:vp_z="16 : 8 : 1"
       inkscape:vp_y="0 : 1000 : 0"
       inkscape:vp_x="0 : 8 : 1"
       sodipodi:type="inkscape:persp3d" />
    <linearGradient
       id="linearGradient3790">
      <stop
         style="stop-color:#93d0e9;stop-opacity:1;"
         offset="0"
         id="stop3792" />
      <stop
         style="stop-color:#3372b1;stop-opacity:1;"
         offset="1"
         id="stop3794" />
    </linearGradient>
    <linearGradient
       inkscape:collect="always"
       id="linearGradient3800">
      <stop
         style="stop-color:#000000;stop-opacity:0;"
         offset="0"
         id="stop3802" />
      <stop
         id="stop3808"
         offset="0.5"
         style="stop-color:#000000;stop-opacity:1;" />
      <stop
         style="stop-color:#000000;stop-opacity:0;"
         offset="1"
         id="stop3804" />
    </linearGradient>
    <linearGradient
       id="linearGradient3779">
      <stop
         style="stop-color:#828282;stop-opacity:1;"
         offset="0"
         id="stop3781" />
      <stop
         style="stop-color:#505050;stop-opacity:1;"
         offset="1"
         id="stop3783" />
    </linearGradient>
    <linearGradient
       id="linearGradient3771">
      <stop
         style="stop-color:#ffffff;stop-opacity:1;"
         offset="0"
         id="stop3773" />
      <stop
         style="stop-color:#e6e6e6;stop-opacity:1;"
         offset="1"
         id="stop3775" />
    </linearGradient>
    <linearGradient
       id="linearGradient4536">
      <stop
         style="stop-color:#ffffff;stop-opacity:1;"
         offset="0"
         id="stop4538" />
      <stop
         id="stop4546"
         offset="0.08246523"
         style="stop-color:#ffffff;stop-opacity:0.15686275;" />
      <stop
         id="stop4544"
         offset="0.936414"
         style="stop-color:#ffffff;stop-opacity:0.23529412;" />
      <stop
         style="stop-color:#ffffff;stop-opacity:0.39215687;"
         offset="1"
         id="stop4540" />
    </linearGradient>
    <radialGradient
       inkscape:collect="always"
       xlink:href="#linearGradient3688-166-749"
       id="radialGradient3132"
       gradientUnits="userSpaceOnUse"
       gradientTransform="matrix(2.003784,0,0,1.4,27.98813,-17.4)"
       cx="4.9929786"
       cy="43.5"
       fx="4.9929786"
       fy="43.5"
       r="2.5" />
    <linearGradient
       id="linearGradient3688-166-749">
      <stop
         id="stop2883"
         style="stop-color:#181818;stop-opacity:1"
         offset="0" />
      <stop
         id="stop2885"
         style="stop-color:#181818;stop-opacity:0"
         offset="1" />
    </linearGradient>
    <radialGradient
       inkscape:collect="always"
       xlink:href="#linearGradient3688-464-309"
       id="radialGradient3134"
       gradientUnits="userSpaceOnUse"
       gradientTransform="matrix(2.003784,0,0,1.4,-20.01187,-104.4)"
       cx="4.9929786"
       cy="43.5"
       fx="4.9929786"
       fy="43.5"
       r="2.5" />
    <linearGradient
       id="linearGradient3688-464-309">
      <stop
         id="stop2889"
         style="stop-color:#181818;stop-opacity:1"
         offset="0" />
      <stop
         id="stop2891"
         style="stop-color:#181818;stop-opacity:0"
         offset="1" />
    </linearGradient>
    <linearGradient
       inkscape:collect="always"
       xlink:href="#linearGradient3702-501-757"
       id="linearGradient3136"
       gradientUnits="userSpaceOnUse"
       x1="25.058096"
       y1="47.027729"
       x2="25.058096"
       y2="39.999443" />
    <linearGradient
       id="linearGradient3702-501-757">
      <stop
         id="stop2895"
         style="stop-color:#181818;stop-opacity:0"
         offset="0" />
      <stop
         id="stop2897"
         style="stop-color:#181818;stop-opacity:1"
         offset="0.5" />
      <stop
         id="stop2899"
         style="stop-color:#181818;stop-opacity:0"
         offset="1" />
    </linearGradient>
    <linearGradient
       inkscape:collect="always"
       xlink:href="#linearGradient4536"
       id="linearGradient4542"
       x1="14.801802"
       y1="1010.4072"
       x2="14.801802"
       y2="1024.1722"
       gradientUnits="userSpaceOnUse"
       gradientTransform="translate(-4,27.000017)" />
    <radialGradient
       inkscape:collect="always"
       xlink:href="#linearGradient3771"
       id="radialGradient3777"
       cx="8.0720873"
       cy="1039.4613"
       fx="8.0720873"
       fy="1039.4613"
       r="8"
       gradientUnits="userSpaceOnUse"
       gradientTransform="matrix(1.4806489e-6,1.9101011,-1.3873874,1.0754581e-6,1450.2076,1024.0417)" />
    <linearGradient
       inkscape:collect="always"
       xlink:href="#linearGradient3779"
       id="linearGradient3785"
       x1="3.4594595"
       y1="1036.4342"
       x2="3.4594595"
       y2="1052.2942"
       gradientUnits="userSpaceOnUse" />
    <linearGradient
       inkscape:collect="always"
       xlink:href="#linearGradient3800"
       id="linearGradient3806"
       x1="1.1875"
       y1="7.984375"
       x2="14.8125"
       y2="7.984375"
       gradientUnits="userSpaceOnUse" />
    <radialGradient
       inkscape:collect="always"
       xlink:href="#linearGradient3790"
       id="radialGradient3796"
       cx="11.072059"
       cy="1045.0559"
       fx="11.072059"
       fy="1045.0559"
       r="5"
       gradientUnits="userSpaceOnUse"
       gradientTransform="matrix(1.3020488e-5,1.7443014,-1.3603604,1.0154528e-5,1426.7246,1025.7323)" />
    <linearGradient
       inkscape:collect="always"
       xlink:href="#linearGradient3779"
       id="linearGradient3812"
       x1="6.2342343"
       y1="1036.4342"
       x2="6.2342343"
       y2="1052.3365"
       gradientUnits="userSpaceOnUse" />
    <linearGradient
       inkscape:collect="always"
       xlink:href="#linearGradient3779"
       id="linearGradient3804"
       gradientUnits="userSpaceOnUse"
       x1="6.2342343"
       y1="1036.4342"
       x2="6.2342343"
       y2="1052.3365"
       gradientTransform="translate(0,-1036.3622)" />
    <linearGradient
       id="linearGradient3785-6">
      <stop
         style="stop-color:#384880;stop-opacity:1;"
         offset="0"
         id="stop3787" />
      <stop
         style="stop-color:#000000;stop-opacity:1;"
         offset="1"
         id="stop3789" />
    </linearGradient>
    <linearGradient
       y2="520.1709"
       y1="408.39655"
       x2="365.97757"
       x1="365.51193"
       id="linearGradient3189"
       xlink:href="#linearGradient3785-6"
       gradientUnits="userSpaceOnUse"
       gradientTransform="matrix(0.08112299,0,0,0.07855526,540.8143,254.8467)"
       inkscape:collect="always" />
    <filter
       id="filter7554"
       color-interpolation-filters="sRGB"
       inkscape:collect="always">
      <feBlend
         mode="darken"
         in2="BackgroundImage"
         id="feBlend7556"
         inkscape:collect="always" />
    </filter>
    <linearGradient
       osb:paint="solid"
       id="linearGradient5606">
      <stop
         style="stop-color:#000000;stop-opacity:1;"
         offset="0"
         id="stop5608" />
    </linearGradient>
    <linearGradient
       id="linearGradient3785-2">
      <stop
         style="stop-color:#384880;stop-opacity:1;"
         offset="0"
         id="stop3787-5" />
      <stop
         style="stop-color:#000000;stop-opacity:1;"
         offset="1"
         id="stop3789-7" />
    </linearGradient>
    <linearGradient
       y2="520.1709"
       y1="408.39655"
       x2="365.97757"
       x1="365.51193"
       id="linearGradient3189-2"
       xlink:href="#linearGradient3785-2"
       gradientUnits="userSpaceOnUse"
       gradientTransform="matrix(0.08112299,0,0,0.07855526,540.8143,254.8467)"
       inkscape:collect="always" />
    <filter
       id="filter7554-7"
       color-interpolation-filters="sRGB"
       inkscape:collect="always">
      <feBlend
         mode="darken"
         in2="BackgroundImage"
         id="feBlend7556-0"
         inkscape:collect="always" />
    </filter>
    <linearGradient
       osb:paint="solid"
       id="linearGradient5606-0">
      <stop
         style="stop-color:#000000;stop-opacity:1;"
         offset="0"
         id="stop5608-6" />
    </linearGradient>
    <linearGradient
       id="linearGradient3785-8">
      <stop
         style="stop-color:#384880;stop-opacity:1;"
         offset="0"
         id="stop3787-53" />
      <stop
         style="stop-color:#000000;stop-opacity:1;"
         offset="1"
         id="stop3789-8" />
    </linearGradient>
    <linearGradient
       y2="520.1709"
       y1="408.39655"
       x2="365.97757"
       x1="365.51193"
       id="linearGradient3189-7"
       xlink:href="#linearGradient3785-8"
       gradientUnits="userSpaceOnUse"
       gradientTransform="matrix(0.08112299,0,0,0.07855526,540.8143,254.8467)"
       inkscape:collect="always" />
    <filter
       id="filter7554-77"
       color-interpolation-filters="sRGB"
       inkscape:collect="always">
      <feBlend
         mode="darken"
         in2="BackgroundImage"
         id="feBlend7556-3"
         inkscape:collect="always" />
    </filter>
    <linearGradient
       osb:paint="solid"
       id="linearGradient5606-7">
      <stop
         style="stop-color:#000000;stop-opacity:1;"
         offset="0"
         id="stop5608-0" />
    </linearGradient>
    <linearGradient
       id="linearGradient3785-3">
      <stop
         style="stop-color:#384880;stop-opacity:1;"
         offset="0"
         id="stop3787-9" />
      <stop
         style="stop-color:#000000;stop-opacity:1;"
         offset="1"
         id="stop3789-84" />
    </linearGradient>
    <linearGradient
       y2="520.1709"
       y1="408.39655"
       x2="365.97757"
       x1="365.51193"
       id="linearGradient3189-6"
       xlink:href="#linearGradient3785-3"
       gradientUnits="userSpaceOnUse"
       gradientTransform="matrix(0.08112299,0,0,0.07855526,540.8143,254.8467)"
       inkscape:collect="always" />
    <filter
       id="filter7554-0"
       color-interpolation-filters="sRGB"
       inkscape:collect="always">
      <feBlend
         mode="darken"
         in2="BackgroundImage"
         id="feBlend7556-9"
         inkscape:collect="always" />
    </filter>
    <linearGradient
       osb:paint="solid"
       id="linearGradient5606-8">
      <stop
         style="stop-color:#000000;stop-opacity:1;"
         offset="0"
         id="stop5608-2" />
    </linearGradient>
  </defs>
  <sodipodi:namedview
     pagecolor="#ffffff"
     bordercolor="#666666"
     borderopacity="1"
     objecttolerance="10"
     gridtolerance="10"
     guidetolerance="10"
     inkscape:pageopacity="0"
     inkscape:pageshadow="2"
     inkscape:window-width="1366"
     inkscape:window-height="696"
     id="namedview7"
     showgrid="false"
     inkscape:zoom="20.85965"
     inkscape:cx="5.544829"
     inkscape:cy="7.3373806"
     inkscape:window-x="0"
     inkscape:window-y="0"
     inkscape:window-maximized="1"
     inkscape:current-layer="svg7384" />
  <title
     id="title9167">Gnome Symbolic Icon Theme</title>
  <metadata
     id="metadata90">
    <rdf:RDF>
      <cc:Work
         rdf:about="">
        <dc:format>image/svg+xml</dc:format>
        <dc:type
           rdf:resource="http://purl.org/dc/dcmitype/StillImage" />
        <dc:title>Gnome Symbolic Icon Theme</dc:title>
      </cc:Work>
    </rdf:RDF>
  </metadata>
  <g
     id="g3608">
    <path
       id="rect4063"
       d="M 6.03125 0.40625 C 4.3541785 0.40625 2.9375 1.6917762 2.9375 3.25 L 2.9375 6.5625 L 2.28125 6.5625 C 1.7563787 6.5625 1.34375 7.0063785 1.34375 7.53125 L 1.34375 8.03125 L 1.34375 15.09375 L 2.46875 15.09375 L 2.46875 10.40625 C 2.46875 9.6777369 3.0527369 9.09375 3.78125 9.09375 L 12.71875 9.09375 L 12.71875 8.03125 L 12.71875 7.53125 C 12.71875 7.0063785 12.306121 6.5625 11.78125 6.5625 L 11.125 6.5625 L 11.125 3.25 C 11.125 1.6917762 9.7083221 0.40625 8.03125 0.40625 L 6.03125 0.40625 z M 6.03125 2.3125 L 8.03125 2.3125 C 8.6137944 2.3125 9.0625 2.7087382 9.0625 3.25 L 9.0625 6.5625 L 5 6.5625 L 5 3.25 C 5 2.7087382 5.4487055 2.3125 6.03125 2.3125 z "
       style="color:#bebebe;fill:#bebebe" />
    <path
       inkscape:connector-curvature="0"
       d="m 4.2262406,9.8700587 c -0.554,0 -1,0.4460003 -1,1.0000003 l 0,4 c 0,0.554 0.446,1 1,1 l 9.9999994,0 c 0.554,0 1,-0.446 1,-1 l 0,-4 c 0,-0.554 -0.446,-1.0000003 -1,-1.0000003 z m 0.5,1.0000003 8.9999994,0 c 0,0 0.5,0 0.5,0.5 l 0,3 c 0,0 0,0.5 -0.5,0.5 l -8.9999994,0 c 0,0 -0.5,0 -0.5,-0.5 l 0,-3 c 0,-0.5 0.5,-0.5 0.5,-0.5 z m 1.5,1 c -0.55228,0 -1,0.44772 -1,1 0,0.55228 0.44772,1 1,1 0.55228,0 1,-0.44772 1,-1 0,-0.55228 -0.44772,-1 -1,-1 z m 2.9999997,0 c -0.55228,0 -0.9999997,0.44772 -0.9999997,1 0,0.55228 0.4477197,1 0.9999997,1 0.55228,0 0.9999997,-0.44772 0.9999997,-1 0,-0.55228 -0.4477197,-1 -0.9999997,-1 z m 2.9999997,0 c -0.55228,0 -1,0.44772 -1,1 0,0.55228 0.44772,1 1,1 0.55228,0 1,-0.44772 1,-1 0,-0.55228 -0.44772,-1 -1,-1 z"
       id="path5047"
       sodipodi:nodetypes="sssssssssccscscsscsssssssssssssss"
       style="color:#dddddd;fill:#bebebe;fill-opacity:1;fill-rule:nonzero;stroke:none;stroke-width:2;marker:none;visibility:visible;display:inline;overflow:visible" />
    <g
       transform="translate(-582.0002,294.5)"
       style="display:inline;filter:url(#filter7554-0)"
       inkscape:label="devices"
       id="layer10" />
    <g
       transform="translate(-341,-322.5)"
       style="display:inline"
       inkscape:label="places"
       id="layer1" />
    <g
       transform="translate(-582.0002,294.5)"
       style="display:inline"
       inkscape:label="mimetypes"
       id="layer14" />
    <g
       transform="translate(-582.0002,294.5)"
       style="display:inline"
       inkscape:label="emblems"
       id="layer15" />
    <g
       transform="translate(-582.0002,294.5)"
       style="display:inline"
       inkscape:label="emotes"
       id="g71291" />
    <g
       transform="translate(-341,-172.5)"
       style="display:inline"
       inkscape:label="categories"
       id="layer2" />
    <g
       transform="translate(-341,-172.5)"
       style="display:inline"
       inkscape:label="apps"
       id="g6058" />
    <g
       transform="translate(-582.0002,294.5)"
       style="display:inline"
       inkscape:label="actions"
       id="layer12" />
  </g>
</svg>
